X:93
T:Reel 93
M:4/4
K:Ador
L:1/8
GF|EA, (3CB,A, EA,CA,|CDEF GEDB,|G,2B,G, DG,B,G,|CDEF G2FG|EA, (3CB,A, EA,CA,|CDEF G2FG|AFGE DB,G,B,|A,CB,G, A,2|CD|EAAG AGAG|EDEF G2GA|GFGE GFGA|Bded BdBG|EDEF GFGE|EDEF G2FG|AFGE DB,G,B,|A,CB,G, A,2|
